X:1
T:Railroad Runs Thru Georgia
M:C
L:1/8
R:Reel
N:AEae tuning
S:Tom Sauber
N:From a transcription by John Lamancusa, by permission; see http://www.mne.psu.edu/lamancusa/tunes.htm
Z:AK/Fiddler’s Companion
K:A
cB |\
A2c2 e3A | c2(e4 e)(e | f)afe d2f2 | e3f e2cB |\
A2c2 e3e | c2(e4 e)(e | f)afe defg | abaf e2c2 | e3f e2cB ||
|: A2Ac BABA | c2 A4 EF | A2Ac BcB2 | A3B A2EF |\
A2Ac BABA | c2e2 c2e2 | efec B2c2 |1 A3B A2EF :|2 A3BA2 || 
